X: 11
T: Sir Arthur Wellesly's Dash.     a Waltz.
R: waltz
B: Cahusac "Annual Collection of Twenty-four favorite Country Dances For the Year 1809", p.6 #1
F: http://imslp.org/wiki/24_Country_Dances_for_the_Year_1809_%28Various%29
F: http://javanese.imslp.info/files/imglnks/usimg/0/0d/IMSLP351863-PMLP71785-wm_cahusac_24_dances_1809.pdf
Z: 2015 by John Chambers  <jc:trillian.mit.edu>
M: 3/8
L: 1/16
K: G
% - - - - - - - - - - - - - - - - - - - - - - - - - - - - -
(dc) |\
B2B2B2 | ~B2c2d2 | e2f2g2 | d4(dc) |\
B2B2B2 | e2c2A2 | G4(AG) | F4(dc) |\
B2B2B2 | B2c2d2 | e2f2g2 | {^g}a4(fd) |
B2(=gfed) | .^c2(abag) | f2d2d2 | d4 :|\
|: af |\
d2e2f2 | g2a2b2 | .c'2(c'abg) | afd2d2 |\
{a}g2f2e2 | {e}d2(cBAG) | .B2(dcAB) | G4 :|
% - - - - - - - - - - Dance description - - - - - - - - - -
%%begintext align
%% Set & change sides, back again, Down the mid:
%% up again, Allemande, & Swing Corners.
%%endtext
